X: 1
T: The Green Gates
R: reel
M: 4/4
L: 1/8
K: Gmaj
GBdg egdB|GBdg egdg|eA (3cBA eA (3cBA|cdef gedB|
GBdg egdB|GBdg egdB|cdef gedc|BGAF G4:|
|:dg~g2 bg~g2|dg~g2 egdg|eA (3cBA eA (3cBA|cdef gedB|
dg~g2 bg~g2|dg~g2 egdB|cdef gedc|BGAF G4:|


Tune 1722	Setting 15147

